src/assets/logos/npm2.svg

<svg width="100" height="43" viewBox="0 0 100 43" fill="none" xmlns="http://www.w3.org/2000/svg">
<path d="M0 0.936035H100V36.186H50V42.0651H27.7742V36.186H0V0.936035ZM5.55645 30.3151H16.6694V12.686H22.2258V30.3151H27.7823V6.81507H5.55645V30.3151ZM33.3306 6.81507V36.186H44.4435V30.3151H55.5565V6.81507H33.3306ZM44.4435 12.6941H50V24.436H44.4435V12.6941ZM61.1129 6.81507V30.3151H72.2258V12.686H77.7823V30.3151H83.3387V12.686H88.8952V30.3151H94.4516V6.81507H61.1129Z" fill="#CB3837"/>
</svg>

<svg width="100" height="43" fill="none" xmlns="http://www.w3.org/2000/svg"><path d="M0 .936h100v35.25H50v5.88H27.774v-5.88H0V.936zm5.556 29.38H16.67v-17.63h5.557v17.63h5.556v-23.5H5.556v23.5zm27.775-23.5v29.37h11.112v-5.87h11.114v-23.5H33.33zm11.112 5.878H50v11.742h-5.556V12.694zm16.67-5.879v23.5h11.113V12.686h5.556v17.63h5.557v-17.63h5.556v17.63h5.557v-23.5h-33.34z" fill="#CB3837"/></svg>
